public/assets/images/others/sign-2.svg

<svg width="85" height="29" viewBox="0 0 85 29" fill="none" xmlns="http://www.w3.org/2000/svg">
<path d="M4.0918 27.9824L3.81836 27.9531C2.48047 27.8164 1.40625 26.498 0.576172 24.0176C0.263672 22.8945 0.166016 21.7227 0.292969 20.4922C0.683594 16.8496 3.13477 14.252 7.66602 12.6992L10.3516 12.1133C10.9082 9.52539 11.2793 7.42578 11.4551 5.79492C11.6016 4.34961 11.4844 3.60742 11.084 3.56836L10.8691 3.54883C10.0684 3.46094 9.24805 4.1543 8.4082 5.63867C8.27148 5.92188 8.24219 6.41992 8.31055 7.12305C8.38867 7.82617 8.27148 8.23633 7.96875 8.35352C7.66602 8.48047 7.48047 7.8457 7.40234 6.45898C7.54883 5.0332 8.39844 3.89062 9.94141 3.01172C10.3516 2.83594 10.6738 2.76758 10.8984 2.78711L11.1621 2.81641C11.9238 2.89453 12.2852 3.56836 12.2559 4.83789L12.0801 6.56641C11.9141 8.08984 11.6016 9.90625 11.123 12.0352C11.9043 11.9277 12.5684 11.8691 13.1055 11.8496C13.3789 12.0547 13.3984 12.2891 13.1836 12.543C11.8164 12.6602 11.0645 12.7676 10.918 12.8848C10.0684 16.5957 9.22852 19.5742 8.39844 21.8398C6.78711 26.0684 5.35156 28.1191 4.0918 27.9824ZM4.00391 27.2695C5.44922 27.416 7.27539 23.5879 9.47266 15.7852C9.90234 14.0859 10.127 13.1289 10.1562 12.9141C6.63086 13.5684 4.17969 14.7793 2.7832 16.5566C1.78711 17.7578 1.21094 19.0469 1.07422 20.4043L1.02539 20.8438C0.810547 22.8945 1.33789 24.75 2.61719 26.4102C3.11523 26.9375 3.57422 27.2207 4.00391 27.2695ZM12.3145 16.5273C12.1387 16.5273 12.0117 16.4004 11.9531 16.1562C12.002 15.9707 12.2363 15.707 12.627 15.375H12.8906C13.0273 15.4336 13.0957 15.5898 13.0957 15.8438C12.7539 16.293 12.4902 16.5273 12.3145 16.5273ZM12.2656 21.5273C11.6406 21.4102 11.3281 21.0098 11.3281 20.3262V20.0137C11.3281 19.2031 11.5332 18.2266 11.9531 17.0938L12.2168 17.0449H12.3145C12.4414 17.1133 12.5293 17.2109 12.5781 17.3574C12.2266 18.5 12.0605 19.3496 12.0605 19.9062C12.0605 19.9746 12.041 20.0137 12.002 20.0137C12.0508 20.5312 12.1387 20.7949 12.2656 20.7949C12.9199 20.7949 14.2188 19.6133 16.1719 17.25L16.377 17.2012C16.5234 17.25 16.6309 17.3379 16.6895 17.4648C16.6895 17.875 15.7031 19.0273 13.7207 20.9023C13.0664 21.3125 12.5781 21.5273 12.2656 21.5273ZM17.0117 21H16.8066C16.2988 21 15.9375 20.707 15.7129 20.1211C15.6738 19.9258 15.6641 19.6719 15.6641 19.3398C15.6641 18.334 16.1426 17.2402 17.1191 16.0586C17.5195 15.707 17.8711 15.5312 18.1641 15.5312H18.418C18.8184 15.5312 19.1406 15.8438 19.4141 16.4688V16.5762C19.3164 16.752 19.1797 16.8398 18.9941 16.8398C18.6133 16.4199 18.3691 16.2148 18.2617 16.2148C17.6465 16.2148 17.041 17.0645 16.4453 18.7637C16.3672 19.1934 16.3379 19.457 16.3379 19.5449C16.3379 20.0625 16.5234 20.3262 16.9141 20.3262C17.793 20.3262 19.3848 19.3008 21.6992 17.25L21.9141 17.2012C22.1191 17.2695 22.2266 17.4258 22.2266 17.6699C19.8633 19.8867 18.125 21 17.0117 21ZM21.0449 22.7188C20.8398 22.6406 20.7324 22.5332 20.7324 22.4062C23.0078 9.66211 24.7266 3.29492 25.8887 3.29492C26.3379 3.29492 26.5625 3.60742 26.5625 4.23242C26.5625 5.30664 25.4688 8.1582 23.2812 12.7773C22.4121 16.9082 21.9824 19.0859 21.9824 19.2812H22.0312C23.1445 16.918 24.082 15.7461 24.8438 15.7461C25.5469 15.7461 25.9473 16.2246 26.0449 17.2012C26.0449 17.7383 26.0059 18.5879 25.9375 19.75C26.3086 19.5742 27.1094 18.7539 28.3398 17.3086C28.3398 17.2305 28.4375 17.2012 28.6523 17.2012C28.8184 17.2891 28.9062 17.4258 28.9062 17.6211C27.4121 19.5254 26.416 20.4824 25.9375 20.4824H25.8398C25.5176 20.4824 25.3223 20.2188 25.2637 19.7012L25.4199 17.4648C25.4199 16.8008 25.2441 16.4688 24.9023 16.4688C24.3359 16.4688 23.4375 17.8066 22.1875 20.4824C21.6602 21.7617 21.3477 22.4844 21.25 22.6699L21.0449 22.7188ZM24.1699 9.28125C25.3125 6.63477 25.8887 4.89648 25.8887 4.07617H25.8398C25.3809 4.80859 24.8145 6.52734 24.1211 9.23242V9.28125H24.1699ZM30.918 21.3125C30.5371 21.3125 30.3125 21.0586 30.2344 20.5312C30.2344 19.8867 30.3418 19.1738 30.5469 18.4023V18.3438H30.498C30.332 18.6074 29.9121 18.9883 29.248 19.4961L28.8867 19.5938C28.3984 19.5938 28.1543 19.2129 28.1543 18.4512C28.1543 17.3477 28.6426 16.3809 29.6094 15.5312C29.9512 15.3945 30.1953 15.3262 30.3418 15.3262C31.1035 15.4824 31.4844 15.7461 31.4844 16.1074C31.416 16.3125 31.2793 16.4199 31.0742 16.4199C30.7227 16.1758 30.4785 16.0586 30.3418 16.0586C29.6777 16.0586 29.1895 16.8203 28.8867 18.3438V18.8125C29.043 18.8125 29.8242 18.0898 31.2305 16.625H31.4844C31.543 16.625 31.6113 16.6934 31.6992 16.8398V16.9375C31.1719 18.7051 30.918 19.8477 30.918 20.375C30.9473 20.4336 30.9668 20.5117 30.9668 20.5898H31.0156C31.748 20.0137 32.4023 19.2324 32.998 18.2461C33.3301 17.5137 33.6133 17.1523 33.8281 17.1523C34.0723 17.1523 34.1992 17.25 34.1992 17.4648C33.7402 18.5781 32.8711 19.7891 31.5918 21.1074C31.2695 21.2441 31.0449 21.3125 30.918 21.3125ZM34.3359 21.1562C33.7988 21.1562 33.4375 20.6875 33.2422 19.75V19.3398C33.2422 17.7676 33.75 16.3809 34.7559 15.1699L35.3223 14.9648C35.8789 15.0625 36.1621 15.3457 36.1621 15.7949C36.1621 16.332 35.4785 17.0645 34.1309 17.9824C34.0234 18.4707 33.9746 18.9883 33.9746 19.5449C33.9746 20.0039 34.0918 20.3066 34.3359 20.4336H34.541C35.3613 20.4336 36.6797 19.3887 38.5059 17.3086C38.5645 17.2695 38.6328 17.25 38.7109 17.25C38.916 17.3281 39.0234 17.4648 39.0234 17.6699C37.8613 19.2324 36.6406 20.3262 35.3809 20.9512C34.9805 21.0879 34.6289 21.1562 34.3359 21.1562ZM34.541 16.7812C34.668 16.7812 34.9609 16.4883 35.4297 15.9023V15.7949C35.4297 15.7266 35.4004 15.6875 35.3223 15.6875C35.0781 15.7754 34.8145 16.1367 34.541 16.7812ZM39.6387 21.2148C38.8574 21.0684 38.4668 20.4238 38.4668 19.3008V18.9785C38.4668 16.0879 39.5996 11.6055 41.875 5.52148C42.5 4.14453 43.0176 3.45117 43.418 3.45117H43.5254C43.8379 3.61719 44.0039 3.91992 44.0039 4.35938C44.0039 5.52148 42.7051 8.36328 40.1172 12.8652C39.4043 15.6973 39.0527 17.7383 39.0527 18.9785C39.1211 19.9746 39.2871 20.4727 39.5312 20.4727H39.6387C40.2539 20.4727 41.3867 19.4961 43.0469 17.543L43.1445 17.4941C43.3594 17.582 43.4668 17.709 43.4668 17.8652C43.0664 18.666 42.1289 19.6523 40.6445 20.8438C40.2051 21.0879 39.8633 21.2148 39.6387 21.2148ZM41.0254 9.99414C42.5781 7.00586 43.3594 5.0918 43.3594 4.25195C42.6367 5.22852 41.8359 7.12305 40.9668 9.93555V9.99414H41.0254ZM49.6777 28.6367C49.4434 28.6367 49.3359 28.5 49.3359 28.2363L53.5156 13.9785H53.457C51.8359 14.252 50.2539 14.5938 48.7012 15.0137C48.5449 14.9551 48.4277 14.8672 48.3594 14.7207V14.6133C48.3594 14.2715 48.8965 14.0371 49.9609 13.9199C50.4199 13.7734 51.6992 13.4805 53.7988 13.0605C55.4785 7.51367 56.3379 4.61328 56.377 4.35938L48.9844 5.96094C48.7988 5.91211 48.7012 5.77539 48.7012 5.56055C48.7012 5.27734 48.9844 5.10156 49.5605 5.05273L56.6602 3.5C57.0996 1.82031 57.4023 0.980469 57.5781 0.980469H57.6953C57.959 0.980469 58.0957 1.09766 58.0957 1.32227C58.0566 1.55664 57.8613 2.2207 57.5195 3.33398H57.5781C62.9004 2.25977 66.3965 1.73242 68.0566 1.73242C68.8184 1.73242 69.1992 1.9375 69.1992 2.35742C69.1992 2.75781 68.9355 3.04102 68.3984 3.2168C68.125 3.2168 67.998 3.08008 67.998 2.81641C67.998 2.74805 68.0371 2.65039 68.1152 2.5332C66.1621 2.5332 62.5293 3.09961 57.2363 4.24219C57.041 4.96484 56.1816 7.86523 54.6582 12.9531H54.7168C56.2695 12.7188 57.6074 12.6016 58.7207 12.6016H59.4629C60.1953 12.6016 60.5566 12.7578 60.5566 13.0605C60.498 13.2168 60.4004 13.334 60.2637 13.4121C59.5703 13.4121 59.1113 13.3926 58.8965 13.3535C55.9375 13.5195 54.4336 13.7051 54.3652 13.9199C51.582 23.3438 50.1367 28.207 50.0195 28.5195C49.8926 28.5977 49.7754 28.6367 49.6777 28.6367ZM63.2031 21.3125C62.8223 21.3125 62.5977 21.0586 62.5195 20.5312C62.5195 19.8867 62.627 19.1738 62.832 18.4023V18.3438H62.7832C62.6172 18.6074 62.1973 18.9883 61.5332 19.4961L61.1719 19.5938C60.6836 19.5938 60.4395 19.2129 60.4395 18.4512C60.4395 17.3477 60.9277 16.3809 61.8945 15.5312C62.2363 15.3945 62.4805 15.3262 62.627 15.3262C63.3887 15.4824 63.7695 15.7461 63.7695 16.1074C63.7012 16.3125 63.5645 16.4199 63.3594 16.4199C63.0078 16.1758 62.7637 16.0586 62.627 16.0586C61.9629 16.0586 61.4746 16.8203 61.1719 18.3438V18.8125C61.3281 18.8125 62.1094 18.0898 63.5156 16.625H63.7695C63.8281 16.625 63.8965 16.6934 63.9844 16.8398V16.9375C63.457 18.7051 63.2031 19.8477 63.2031 20.375C63.2324 20.4336 63.252 20.5117 63.252 20.5898H63.3008C64.0332 20.0137 64.6875 19.2324 65.2832 18.2461C65.6152 17.5137 65.8984 17.1523 66.1133 17.1523C66.3574 17.1523 66.4844 17.25 66.4844 17.4648C66.0254 18.5781 65.1562 19.7891 63.877 21.1074C63.5547 21.2441 63.3301 21.3125 63.2031 21.3125ZM65.4785 21.8887H65.2148C65.166 21.8887 65.0879 21.8203 65.0098 21.6836C65.4883 18.6562 65.8203 17.1523 65.9961 17.1523H66.1523C66.2891 17.1523 66.3965 17.2207 66.4648 17.3574C66.4648 17.6113 66.416 17.9727 66.3086 18.4512V18.5H66.3574C66.7578 17.5137 67.2266 16.7324 67.7637 16.1562L67.9199 16.0586H68.0762C68.4961 16.0586 68.7207 16.4004 68.7598 17.0938V18.5586C68.9258 18.3535 69.3457 17.6113 70.0098 16.3125C70.2734 15.8633 70.5273 15.6387 70.791 15.6387C71.1328 15.6387 71.3184 15.9121 71.3574 16.4688C71.1914 17.9336 71.1035 18.9199 71.1035 19.4375C71.1133 19.6133 71.1426 19.7012 71.2012 19.7012C71.4648 19.7012 72.3145 18.8516 73.7598 17.1523H74.0137C74.1895 17.25 74.2773 17.377 74.2773 17.5137C72.8516 19.457 71.7969 20.4336 71.1035 20.4336C70.6152 20.4336 70.3711 20.0137 70.3711 19.1836C70.4102 18.5488 70.4883 17.7285 70.6348 16.7324C69.8438 18.168 69.3262 19.0469 69.0723 19.3887C68.8574 19.4961 68.7207 19.5449 68.6523 19.5449C68.2324 19.5449 68.0273 19.1934 68.0273 18.5L68.0762 17.0938C68.0469 17.0254 68.0273 16.9766 68.0273 16.9375C67.3047 18.041 66.5039 19.6523 65.6348 21.7812L65.4785 21.8887ZM74.375 21.1562C73.8379 21.1562 73.4766 20.6875 73.2812 19.75V19.3398C73.2812 17.7676 73.7891 16.3809 74.7949 15.1699L75.3613 14.9648C75.918 15.0625 76.2012 15.3457 76.2012 15.7949C76.2012 16.332 75.5176 17.0645 74.1699 17.9824C74.0625 18.4707 74.0137 18.9883 74.0137 19.5449C74.0137 20.0039 74.1309 20.3066 74.375 20.4336H74.5801C75.4004 20.4336 76.7188 19.3887 78.5449 17.3086C78.6035 17.2695 78.6719 17.25 78.75 17.25C78.9551 17.3281 79.0625 17.4648 79.0625 17.6699C77.9004 19.2324 76.6797 20.3262 75.4199 20.9512C75.0195 21.0879 74.668 21.1562 74.375 21.1562ZM74.5801 16.7812C74.707 16.7812 75 16.4883 75.4688 15.9023V15.7949C75.4688 15.7266 75.4395 15.6875 75.3613 15.6875C75.1172 15.7754 74.8535 16.1367 74.5801 16.7812ZM78.1055 26.2637H77.998C77.5879 26.1758 77.373 25.9707 77.373 25.6387V25.4238C77.373 24.5547 78.125 23.1484 79.6191 21.2148C78.75 18.6758 78.3105 17.0547 78.3105 16.3711C78.3105 15.2285 78.9746 14.5938 80.293 14.4375C81.2305 14.5938 81.6992 14.8672 81.6992 15.2773C81.6309 15.4824 81.4844 15.5898 81.2793 15.5898C80.918 15.3066 80.5566 15.1699 80.1855 15.1699C79.4824 15.1699 79.1016 15.5703 79.043 16.3711C79.043 17.0352 79.4043 18.4023 80.1367 20.4824H80.1855C81.8652 18.5879 83.2617 17.4551 84.3555 17.0938C84.5996 17.0938 84.7168 17.2207 84.7168 17.4648C84.7168 17.6406 84.3359 17.9141 83.5742 18.2949C82.2852 19.2227 81.2305 20.248 80.4004 21.3711V21.4199C80.5371 22.0547 80.6055 22.6602 80.6055 23.2363C80.6055 24.8281 79.7754 25.834 78.1055 26.2637ZM78.0566 25.5312C79.3066 25.209 79.9316 24.4082 79.9316 23.1387L79.8242 22.0938H79.7754C78.6523 23.7637 78.0762 24.916 78.0566 25.5312Z" fill="#050D20"/>
</svg>

<svg xmlns="http://www.w3.org/2000/svg" width="85" height="29" fill="none" viewBox="0 0 85 29"><path fill="#050d20" d="m4.092 27.982-.274-.029c-1.338-.137-2.412-1.455-3.242-3.935a9.4 9.4 0 0 1-.283-3.526c.39-3.642 2.842-6.24 7.373-7.793l2.686-.586c.556-2.588.927-4.687 1.103-6.318.147-1.445.03-2.188-.371-2.227l-.215-.02c-.8-.087-1.621.606-2.46 2.09-.138.284-.167.782-.098 1.485.078.703-.04 1.113-.342 1.23-.303.127-.489-.507-.567-1.894.147-1.426.996-2.568 2.54-3.447.41-.176.732-.244.956-.225l.264.03c.762.078 1.123.751 1.094 2.02l-.176 1.73c-.166 1.523-.478 3.34-.957 5.468a20 20 0 0 1 1.983-.185c.273.205.292.44.078.693-1.368.117-2.12.225-2.266.342-.85 3.71-1.69 6.69-2.52 8.955-1.61 4.228-3.046 6.28-4.306 6.142m-.088-.712c1.445.146 3.271-3.682 5.469-11.485.43-1.7.654-2.656.683-2.87-3.525.653-5.976 1.864-7.373 3.642-.996 1.2-1.572 2.49-1.709 3.847l-.049.44c-.214 2.05.313 3.906 1.592 5.566.498.527.957.81 1.387.86m8.31-10.743c-.175 0-.302-.127-.36-.37.048-.186.282-.45.673-.782h.264q.204.088.205.469c-.342.449-.606.683-.781.683m-.048 5q-.938-.176-.938-1.2v-.313c0-.81.205-1.787.625-2.92l.264-.05h.098a.53.53 0 0 1 .263.313c-.351 1.143-.518 1.993-.518 2.55 0 .068-.019.107-.058.107.049.517.137.78.264.78.654 0 1.953-1.18 3.906-3.544l.205-.049a.5.5 0 0 1 .313.264c0 .41-.987 1.562-2.97 3.437-.654.41-1.142.625-1.454.625M17.012 21h-.205q-.76 0-1.094-.879c-.04-.195-.049-.45-.049-.781 0-1.006.479-2.1 1.455-3.281.4-.352.752-.528 1.045-.528h.254c.4 0 .723.313.996.938v.107c-.098.176-.234.264-.42.264-.38-.42-.625-.625-.732-.625q-.924 0-1.817 2.549c-.078.43-.107.693-.107.78 0 .518.185.782.576.782.879 0 2.47-1.025 4.785-3.076l.215-.049c.205.069.313.225.313.469-2.364 2.217-4.102 3.33-5.215 3.33m4.033 1.719c-.205-.078-.313-.186-.313-.313C23.008 9.662 24.727 3.295 25.89 3.295q.674 0 .674.937 0 1.614-3.282 8.545c-.869 4.131-1.299 6.309-1.299 6.504h.05c1.113-2.363 2.05-3.535 2.812-3.535.703 0 1.103.479 1.2 1.455q-.002.806-.107 2.549c.372-.176 1.172-.996 2.403-2.441 0-.079.098-.108.312-.108a.44.44 0 0 1 .254.42c-1.494 1.904-2.49 2.861-2.968 2.861h-.098c-.322 0-.518-.263-.576-.78l.156-2.237c0-.664-.176-.996-.518-.996-.566 0-1.465 1.338-2.715 4.013-.527 1.28-.84 2.002-.937 2.188zM24.17 9.28c1.142-2.646 1.719-4.385 1.719-5.205h-.05c-.458.733-1.024 2.451-1.718 5.156v.05zm6.748 12.032c-.38 0-.605-.254-.684-.782 0-.644.108-1.357.313-2.129v-.058h-.049c-.166.263-.586.644-1.25 1.152l-.361.098q-.733 0-.733-1.143c0-1.103.489-2.07 1.455-2.92q.513-.204.733-.205c.762.156 1.142.42 1.142.781q-.102.311-.41.313c-.351-.244-.596-.361-.732-.361-.664 0-1.152.761-1.455 2.285v.468c.156 0 .937-.722 2.343-2.187h.254c.059 0 .127.068.215.215v.098c-.527 1.767-.781 2.91-.781 3.437a.5.5 0 0 1 .049.215h.049c.732-.576 1.386-1.358 1.982-2.344.332-.732.615-1.094.83-1.094.244 0 .371.098.371.313-.459 1.113-1.328 2.324-2.607 3.642q-.483.206-.674.206m3.418-.157c-.537 0-.898-.468-1.094-1.406v-.41c0-1.572.508-2.96 1.514-4.17l.566-.205c.557.098.84.38.84.83 0 .537-.684 1.27-2.031 2.187a7.2 7.2 0 0 0-.156 1.563c0 .459.117.762.36.889h.206c.82 0 2.139-1.045 3.965-3.125a.36.36 0 0 1 .205-.059c.205.078.312.215.312.42-1.162 1.562-2.382 2.656-3.642 3.281-.4.137-.752.205-1.045.205m.205-4.375c.127 0 .42-.293.889-.879v-.107c0-.068-.03-.107-.108-.107-.244.087-.508.449-.781 1.093m5.098 4.434c-.782-.147-1.172-.791-1.172-1.914v-.322c0-2.891 1.133-7.373 3.408-13.458.625-1.376 1.143-2.07 1.543-2.07h.107c.313.166.479.469.479.908 0 1.162-1.299 4.004-3.887 8.506-.713 2.832-1.064 4.873-1.064 6.114.068.996.234 1.494.478 1.494h.108c.615 0 1.748-.977 3.408-2.93l.098-.049c.214.088.322.215.322.371-.4.801-1.338 1.787-2.822 2.979-.44.244-.782.37-1.006.37m1.386-11.22c1.553-2.99 2.334-4.903 2.334-5.743-.722.977-1.523 2.871-2.392 5.684v.058zm8.653 18.642c-.235 0-.342-.137-.342-.4l4.18-14.258h-.059a50 50 0 0 0-4.756 1.035.57.57 0 0 1-.342-.293v-.108c0-.341.538-.576 1.602-.693.459-.147 1.738-.44 3.838-.86q2.52-8.32 2.578-8.7l-7.393 1.6c-.185-.048-.283-.185-.283-.4 0-.283.283-.458.86-.507l7.1-1.553c.439-1.68.741-2.52.917-2.52h.117c.264 0 .4.118.4.342-.038.235-.234.899-.575 2.012h.058c5.322-1.072 8.819-1.6 10.479-1.6q1.142-.002 1.142.625c0 .4-.263.684-.8.86-.274 0-.401-.137-.401-.4 0-.069.04-.167.117-.284-1.953 0-5.586.567-10.879 1.71-.195.722-1.054 3.622-2.578 8.71h.059q2.331-.351 4.004-.351h.742c.732 0 1.094.156 1.094.458a.66.66 0 0 1-.293.352c-.694 0-1.153-.02-1.367-.059-2.96.167-4.463.352-4.532.567-2.783 9.424-4.228 14.287-4.346 14.6a.7.7 0 0 1-.341.117m13.525-7.324c-.38 0-.605-.254-.684-.782 0-.644.108-1.357.313-2.129v-.058h-.049c-.166.263-.586.644-1.25 1.152l-.361.098q-.732 0-.732-1.143c0-1.103.488-2.07 1.455-2.92q.512-.204.732-.205c.762.156 1.142.42 1.142.781q-.101.311-.41.313c-.351-.244-.595-.361-.732-.361-.664 0-1.152.761-1.455 2.285v.468c.156 0 .937-.722 2.344-2.187h.254c.058 0 .127.068.214.215v.098c-.527 1.767-.78 2.91-.78 3.437a.5.5 0 0 1 .048.215h.049c.732-.576 1.386-1.358 1.982-2.344.332-.732.615-1.094.83-1.094.244 0 .371.098.371.313-.459 1.113-1.328 2.324-2.607 3.642q-.483.206-.674.206m2.275.576h-.263c-.049 0-.127-.069-.205-.205.478-3.028.81-4.532.986-4.532h.156c.137 0 .245.069.313.205 0 .254-.049.616-.156 1.094v.049h.048q.6-1.48 1.407-2.344l.156-.097h.156c.42 0 .645.341.684 1.035v1.465c.166-.206.586-.948 1.25-2.247.263-.449.517-.673.781-.673.342 0 .527.273.566.83-.166 1.465-.254 2.45-.254 2.968q.013.264.098.264c.264 0 1.114-.85 2.559-2.549h.254c.175.098.263.225.263.362-1.425 1.943-2.48 2.92-3.174 2.92-.488 0-.732-.42-.732-1.25.04-.635.117-1.456.264-2.452-.791 1.436-1.309 2.315-1.563 2.657-.215.107-.351.156-.42.156-.42 0-.625-.352-.625-1.045l.05-1.406a.5.5 0 0 1-.05-.157c-.722 1.104-1.523 2.715-2.392 4.844zm8.897-.733c-.537 0-.898-.468-1.094-1.406v-.41c0-1.572.508-2.96 1.514-4.17l.566-.205c.557.098.84.38.84.83 0 .537-.683 1.27-2.031 2.187a7.3 7.3 0 0 0-.156 1.563c0 .459.117.762.361.889h.205c.82 0 2.139-1.045 3.965-3.125a.36.36 0 0 1 .205-.059c.205.078.313.215.313.42-1.163 1.562-2.383 2.656-3.643 3.281-.4.137-.752.205-1.045.205m.205-4.375c.127 0 .42-.293.889-.879v-.107c0-.068-.03-.107-.108-.107-.244.087-.508.449-.78 1.093m3.526 9.483h-.108c-.41-.088-.625-.293-.625-.625v-.215c0-.87.752-2.276 2.246-4.21-.869-2.538-1.308-4.16-1.308-4.843 0-1.142.664-1.777 1.982-1.933.938.156 1.406.43 1.406.84-.068.204-.215.312-.42.312-.361-.283-.722-.42-1.093-.42q-1.055 0-1.143 1.201c0 .664.361 2.031 1.094 4.111h.049c1.68-1.894 3.076-3.027 4.17-3.388.244 0 .36.127.36.37 0 .177-.38.45-1.142.83-1.289.929-2.343 1.954-3.174 3.077v.049q.206.952.206 1.816c0 1.592-.83 2.598-2.5 3.028m-.05-.733c1.25-.322 1.876-1.123 1.876-2.392l-.108-1.045h-.049c-1.123 1.67-1.699 2.822-1.718 3.437"/></svg>
